X:24
T: Bluegrass Special
C: Bill Monroe - Ricky Skaggs solo
S: From the" Bluegrass Extravaganza" CD
S: MandoZine TablEdit Archives
Z: Terry G Martin for MandoZine TablEdit Archives
L: 1/8
Q: 380
M: 4/4
K: A
 z6 AA |: =c=c/B/ =c/B/A =c=c/B/ =c/B/A | =c=c/B/ =c/B/A A2 AA | =c=c/B/ =c/B/A =c=c/B/ =c/B/A | Ae =cB AF/=F/ ED |
 DF A=c2B AF | =c2 =c2 B/=c/B FE | [e2A2E2] [eAE][eAE] A,C EF | A2 [e2A2E2] [e2A2E2] [eAE][eAE] |
 DB zB zB BA | Be B/=c/B A=F/^F/ EF | AA2A2F F=F |1 A,6 AA :|2 A,6 AA ||
